X:36
T:Captain White's
R:jig 48
M:6/8
L:1/8
Q:1/4=120
K:Dmaj
A|"D"DFA d2f|"G"edc B2d|"D"A2d F2B|"A7"AGF E2A|
"D"DFA d2f|"G"edc B2d|"D"A2d F2B|"A7"ABc "D"d2:|f|:
"A"e^de A2f|"A"e^de a2f|"A"efe "A7"dcB|"A"A2B c2f|
"A"e^de A2f|"A"e^de a2f|"A"efe "E7"dcB|"A"ABA "E7"GFE:||
"D"D2f fef|"D"d2A AGA|"D"D2f fef|"A7"gfe ecA|
"D"D2f fef|"D"d2A AGA|"G"Bed "A7"cBc|"D"dAG "A7"FGE:|]

